img/bigmag.svg

<svg width="190" height="94" viewBox="0 0 190 94" fill="none" xmlns="http://www.w3.org/2000/svg">
<rect x="1" y="1.85706" width="188" height="90.2857" rx="11" fill="white" stroke="black" stroke-width="2"/>
<path fill-rule="evenodd" clip-rule="evenodd" d="M135.701 62.2877L141.068 62.2204L136.5 37.9C136.148 36.0208 134.225 34.9553 132.313 34.9553H131.159C129.247 34.9553 127.38 36.0327 126.971 37.9L121.629 62.2877H127.264L131.036 41.6748C131.145 41.0761 132.353 41.1534 132.435 41.6748L135.701 62.2877V62.2877Z" fill="#2B2B2A"/>
<path d="M118.188 34.7755V62.2878H112.744V50.828C112.744 50.601 112.419 50.5323 112.353 50.7328L110.213 57.3023L106.625 57.3191L104.166 50.7883C104.067 50.526 103.768 50.5518 103.768 50.8667V62.2878H98.4512V34.7755H102.229C103.133 35.0679 103.751 35.4617 104.134 36.5586L108.004 48.0022C108.123 48.4369 108.587 48.4508 108.726 48.0064C109.277 46.2373 111.878 37.944 112.377 36.7093C112.869 35.7296 113.359 35.1182 114.455 34.7755H118.188V34.7755Z" fill="#2B2B2A"/>
<path fill-rule="evenodd" clip-rule="evenodd" d="M154.668 62.3621H151.163C146.929 62.3621 143.486 58.9185 143.486 54.6865V42.4898C143.486 38.2583 146.929 34.8154 151.163 34.8154H159.697V40.1032H151.163C149.846 40.1032 148.775 41.174 148.775 42.4898V54.6865C148.775 56.0023 149.846 57.0732 151.163 57.0732H154.668C155.984 57.0732 157.056 56.0023 157.056 54.6865V53.5717L157.049 52.7418H154.587V48.2518L162.364 48.2532L162.342 54.6865C162.342 58.9185 158.9 62.3621 154.668 62.3621Z" fill="#2B2B2A"/>
<path d="M27.6367 69.9317V24.0507H27.6387C27.6387 23.98 27.6538 23.907 27.6859 23.8377C27.7126 23.7808 27.747 23.6288 27.791 23.4328C27.9749 22.6168 28.2984 21.1789 29.731 19.7685C31.1735 18.3496 32.5654 18.0671 33.403 17.8967C33.5848 17.8592 33.7348 17.8294 33.8258 17.7972C33.8922 17.7651 33.9672 17.7469 34.0452 17.7469H60.5468V17.749C60.611 17.749 60.6754 17.7609 60.7385 17.7867C60.8207 17.8206 60.986 17.855 61.1925 17.899C62.0415 18.0777 63.4678 18.3777 64.8975 19.8082C65.1095 20.02 65.3751 20.3458 65.6214 20.697C65.8495 21.0214 66.0667 21.3717 66.2176 21.6823C66.2176 21.6886 66.4374 22.1673 66.4621 22.225C66.5357 22.408 66.6065 22.6054 66.6696 22.8225C66.7232 23.0057 66.7661 23.2518 66.809 23.4941C66.8784 25.4063 66.8784 28.4208 66.8645 30.452L61.0295 30.4381L61.0127 27.504C61.0127 26.3328 61.2588 24.7006 60.3242 23.9136C59.9439 23.6279 59.3614 23.5175 58.6891 23.5208C57.996 23.5228 57.3077 23.6749 56.8912 23.9661C56.3781 24.3238 56.2858 24.884 56.1906 25.46C56.0847 26.1067 55.9746 26.7706 55.4294 27.3863C54.4935 28.4441 53.1101 28.4004 51.6075 28.3534C51.3336 28.3444 51.0551 28.3361 50.6963 28.3361C50.176 28.3361 49.8377 28.3382 49.4018 28.3415C46.6541 28.3606 41.0399 28.3992 40.4574 28.2194C38.7024 27.6778 38.516 26.3337 38.3759 25.3241C38.3393 25.0657 38.3072 24.8366 38.2517 24.7039H38.2526L38.2517 24.7017C38.0362 24.1888 37.6827 23.8707 37.2108 23.7005C36.6806 23.5089 35.9908 23.4831 35.1728 23.5644C34.5659 23.6255 34.1545 23.8579 33.8931 24.2016C33.5689 24.6269 33.4425 25.2404 33.4436 25.9277V66.5921H33.4459C33.4459 66.6873 33.4416 66.9623 33.4373 67.232C33.4169 68.5377 33.4018 69.5708 34.3346 70.1169C34.8344 70.4093 35.2577 70.405 35.8893 70.3985C36.0896 70.3974 36.1547 70.3954 36.2214 70.3954V70.3965L59.1793 70.3985C60.9397 69.7734 60.703 69.5098 61.0351 68.2784C61.0342 66.4463 61.0342 65.1496 61.0329 63.3162C61.9378 66.3455 65.2089 67.1016 65.9329 67.4002C66.1621 67.4943 66.3968 67.5922 66.5411 67.6539C66.7318 67.7256 66.8678 67.9099 66.8678 68.1273C66.8678 70.3181 66.6119 72.1589 65.6342 73.5423C64.6426 74.9442 63.0354 75.8587 60.5263 76.1895H60.5234C60.5072 76.1917 60.4899 76.1928 60.4738 76.1937C58.2831 76.2656 56.0292 76.2483 53.7943 76.2314C52.9516 76.2247 52.1112 76.2184 50.8979 76.2184H36.6249C35.1517 76.2184 33.3944 76.4829 32.0398 75.9411C29.9226 75.093 27.6367 72.1782 27.6367 69.9317V69.9317Z" fill="#2B2B2A"/>
<path fill-rule="evenodd" clip-rule="evenodd" d="M83.0758 62.6442H79.5712C75.3372 62.6442 71.8945 59.2006 71.8945 54.9686V42.7724C71.8945 38.5405 75.3372 35.0978 79.5712 35.0978H88.1054V40.3853H79.5712C78.2542 40.3853 77.1834 41.4561 77.1834 42.7724V54.9686C77.1834 56.2849 78.2542 57.3555 79.5712 57.3555H83.0758C84.3919 57.3555 85.4638 56.2849 85.4638 54.9686V53.8542L85.4573 53.0243H82.9957V48.5344L90.7718 48.5353L90.7505 54.9686C90.7505 59.2006 87.3078 62.6442 83.0758 62.6442V62.6442Z" fill="#2B2B2A"/>
<path fill-rule="evenodd" clip-rule="evenodd" d="M61.0312 57.4848C61.4949 60.4413 63.8719 62.1227 66.8864 62.6441V34.9917H61.0312V57.4848Z" fill="#2B2B2A"/>
<path fill-rule="evenodd" clip-rule="evenodd" d="M37.7891 35.1001H46.4254C51.6626 35.1001 55.7295 36.671 55.7295 41.9318C55.7295 44.4024 54.4638 47.0332 52.4056 47.8781V48.0472C54.9832 48.7776 56.9726 50.8517 56.9726 54.53C56.9726 60.1334 52.6327 62.6447 47.1446 62.6447H44.9542C40.9971 62.6447 37.7891 59.4367 37.7891 55.4787V35.1001V35.1001ZM46.1607 46.1316C48.9288 46.1316 50.1528 44.8553 50.1528 42.8515C50.1528 40.7294 48.8603 39.9049 46.2024 39.9049H43.4936V46.1316H46.1607V46.1316ZM46.68 57.8399C49.7897 57.8399 51.3961 56.6319 51.3961 54.1274C51.3961 51.7115 49.8164 50.7276 46.68 50.7276H43.4936V55.6448C43.4936 56.8569 44.4764 57.8399 45.6887 57.8399H46.68V57.8399Z" fill="#2B2B2A"/>
<path fill-rule="evenodd" clip-rule="evenodd" d="M61.0312 57.4848C61.4949 60.4413 63.8719 62.1227 66.8864 62.6441V34.9917H61.0312V57.4848Z" fill="#2B2B2A"/>
<path fill-rule="evenodd" clip-rule="evenodd" d="M125.865 52.7476H136.574V57.1913H125.865V52.7476Z" fill="#2B2B2A"/>
</svg>

<svg xmlns="http://www.w3.org/2000/svg" fill="none" viewBox="0 0 190 94"><rect width="188" height="90.286" x="1" y="1.857" fill="#fff" stroke="#000" stroke-width="2" rx="11"/><path fill="#2B2B2A" fill-rule="evenodd" d="M135.701 62.288l5.367-.068L136.5 37.9c-.352-1.88-2.275-2.945-4.187-2.945h-1.154c-1.912 0-3.779 1.078-4.188 2.945l-5.342 24.388h5.635l3.772-20.613c.109-.599 1.317-.522 1.399 0l3.266 20.613z" clip-rule="evenodd"/><path fill="#2B2B2A" d="M118.188 34.776v27.512h-5.444v-11.46c0-.227-.325-.296-.391-.095l-2.14 6.57-3.588.016-2.459-6.53c-.099-.263-.398-.237-.398.078v11.42h-5.317V34.777h3.778c.904.292 1.522.686 1.905 1.783l3.87 11.443c.119.435.583.449.722.004.551-1.769 3.152-10.062 3.651-11.297.492-.98.982-1.59 2.078-1.934h3.733z"/><path fill="#2B2B2A" fill-rule="evenodd" d="M154.668 62.362h-3.505c-4.234 0-7.677-3.444-7.677-7.675V42.49c0-4.232 3.443-7.675 7.677-7.675h8.534v5.288h-8.534a2.39 2.39 0 0 0-2.388 2.387v12.197a2.39 2.39 0 0 0 2.388 2.386h3.505a2.39 2.39 0 0 0 2.388-2.386v-1.115l-.007-.83h-2.462v-4.49l7.777.001-.022 6.434c0 4.232-3.442 7.675-7.674 7.675z" clip-rule="evenodd"/><path fill="#2B2B2A" d="M27.637 69.932V24.05h.002c0-.071.015-.144.047-.213a3.01 3.01 0 0 0 .105-.405c.184-.816.507-2.254 1.94-3.665 1.442-1.418 2.834-1.7 3.672-1.871.182-.038.332-.068.423-.1a.505.505 0 0 1 .22-.05h26.5v.002c.065 0 .13.012.193.038.082.034.247.068.454.112.849.179 2.275.479 3.704 1.91.212.211.478.537.724.888.229.324.446.675.597.985 0 .007.22.485.244.543.074.183.144.38.208.598.053.183.096.429.139.671.07 1.912.07 4.927.056 6.958l-5.835-.014-.017-2.934c0-1.171.246-2.803-.689-3.59-.38-.286-.963-.397-1.635-.393-.693.002-1.381.154-1.798.445-.513.358-.605.918-.7 1.494-.106.647-.216 1.31-.762 1.926-.936 1.058-2.319 1.014-3.822.967a25.97 25.97 0 0 0-.91-.017c-.521 0-.86.002-1.295.006-2.748.019-8.362.057-8.945-.123-1.755-.541-1.941-1.885-2.081-2.895-.037-.258-.069-.487-.124-.62v-.002c-.216-.513-.57-.831-1.041-1.002-.53-.191-1.22-.217-2.038-.136-.607.061-1.019.294-1.28.638-.324.425-.45 1.038-.45 1.726v40.664h.003c0 .095-.004.37-.009.64-.02 1.306-.035 2.339.898 2.885.5.292.923.288 1.554.281.2 0 .266-.003.332-.003v.002l22.958.001c1.76-.625 1.524-.888 1.856-2.12 0-1.832 0-3.128-.002-4.962.905 3.03 4.176 3.786 4.9 4.084.23.094.464.192.608.254.19.072.327.256.327.473 0 2.191-.256 4.032-1.234 5.415-.991 1.402-2.599 2.317-5.108 2.647h-.003a.642.642 0 0 1-.05.005c-2.19.072-4.444.054-6.679.037-.842-.006-1.683-.013-2.896-.013H36.625c-1.473 0-3.23.265-4.585-.277-2.117-.848-4.403-3.763-4.403-6.01z"/><path fill="#2B2B2A" fill-rule="evenodd" d="M83.076 62.644H79.57c-4.234 0-7.677-3.443-7.677-7.675V42.772c0-4.231 3.443-7.674 7.677-7.674h8.534v5.287h-8.534a2.39 2.39 0 0 0-2.388 2.387V54.97a2.39 2.39 0 0 0 2.388 2.386h3.505a2.39 2.39 0 0 0 2.388-2.386v-1.115l-.007-.83h-2.461v-4.49l7.776.001-.022 6.434c0 4.232-3.442 7.675-7.674 7.675zM61.031 57.485c.464 2.956 2.84 4.638 5.855 5.16V34.991h-5.855v22.493zM37.79 35.1h8.635c5.238 0 9.305 1.571 9.305 6.832 0 2.47-1.266 5.101-3.324 5.946v.17c2.577.73 4.567 2.804 4.567 6.482 0 5.603-4.34 8.115-9.828 8.115h-2.19a7.165 7.165 0 0 1-7.166-7.166V35.1zm8.37 11.032c2.769 0 3.993-1.277 3.993-3.28 0-2.123-1.293-2.947-3.95-2.947h-2.71v6.227h2.668zm.52 11.708c3.11 0 4.716-1.208 4.716-3.713 0-2.416-1.58-3.4-4.716-3.4h-3.186v4.918c0 1.212.982 2.195 2.195 2.195h.991z" clip-rule="evenodd"/><path fill="#2B2B2A" fill-rule="evenodd" d="M61.031 57.485c.464 2.956 2.84 4.638 5.855 5.16V34.991h-5.855v22.493zM125.865 52.748h10.709v4.443h-10.709v-4.443z" clip-rule="evenodd"/></svg>
